packages/dnb-eufemia/assets/icons/motorcycle_medium.svg

<svg width="24" height="24" viewBox="0 0 24 24" fill="none" xmlns="http://www.w3.org/2000/svg">
<g clip-path="url(#clip0_1350_7)">
<path d="M23.255 13.505C22.7469 12.9969 22.2118 12.5542 21.5319 12.2894C19.8572 11.637 17.8804 12.142 16.725 13.529L14.699 15.96C14.4174 16.2981 13.9861 16.5001 13.546 16.5H11.939C11.5062 16.5 11.0816 16.3047 10.8 15.976C10.3665 15.471 9.94261 14.9248 9.5 14.3907M20.25 18.75L17.8778 7.125M13.875 2.25H15.658C16.3588 2.24992 16.9816 2.75523 17.126 3.441L17.8778 7.125M3.75 18.75L9.5 14.3907M7.17649 7.89887L2.25 8.25C1.433 8.25 0.75 8.933 0.75 9.75C0.75 10.567 1.433 11.25 2.25 11.25C3.70539 11.25 5.13964 11.1749 6.49801 11.801C7.70797 12.3587 8.63935 13.352 9.5 14.3907M7.17649 7.89887L10.061 10.811C10.3422 11.092 10.7235 11.2499 11.121 11.25H12.75C13.567 11.25 14.25 10.567 14.25 9.75V7.39472M7.17649 7.89887L14.25 7.39472M14.25 7.39472L17.8778 7.125M23.25 18.75C23.25 20.4069 21.9069 21.75 20.25 21.75C18.5931 21.75 17.25 20.4069 17.25 18.75C17.25 17.0931 18.5931 15.75 20.25 15.75C21.9069 15.75 23.25 17.0931 23.25 18.75ZM6.75 18.75C6.75 20.4069 5.40685 21.75 3.75 21.75C2.09315 21.75 0.75 20.4069 0.75 18.75C0.75 17.0931 2.09315 15.75 3.75 15.75C5.40685 15.75 6.75 17.0931 6.75 18.75ZM20.25 7.125C20.25 8.66851 21.6482 9 22.875 9V5.25C21.6482 5.25 20.25 5.58149 20.25 7.125Z" stroke="black" stroke-width="1.5" stroke-linecap="round" stroke-linejoin="round"/>
</g>
<defs>
<clipPath id="clip0_1350_7">
<rect width="24" height="24" fill="white"/>
</clipPath>
</defs>
</svg>

<svg width="24" height="24" viewBox="0 0 24 24" fill="none" xmlns="http://www.w3.org/2000/svg"><g clip-path="url(#a)"><path d="M23.255 13.505c-.508-.508-1.043-.95-1.723-1.216a4.298 4.298 0 0 0-4.807 1.24l-2.026 2.431c-.282.338-.713.54-1.153.54h-1.607c-.433 0-.857-.195-1.139-.524-.434-.505-.857-1.051-1.3-1.585m10.75 4.359L17.878 7.125M13.875 2.25h1.783c.7 0 1.324.505 1.468 1.191l.752 3.684M3.75 18.75l5.75-4.36M7.176 7.9l-4.926.35c-.817 0-1.5.683-1.5 1.5s.683 1.5 1.5 1.5c1.455 0 2.89-.075 4.248.551 1.21.558 2.141 1.551 3.002 2.59M7.176 7.899l2.885 2.912a1.5 1.5 0 0 0 1.06.439h1.629c.817 0 1.5-.683 1.5-1.5V7.395m-7.074.504 7.074-.504m0 0 3.628-.27M23.25 18.75a3 3 0 1 1-6 0 3 3 0 0 1 6 0Zm-16.5 0a3 3 0 1 1-6 0 3 3 0 0 1 6 0Zm13.5-11.625C20.25 8.669 21.648 9 22.875 9V5.25c-1.227 0-2.625.331-2.625 1.875Z" stroke="#000" stroke-width="1.5" stroke-linecap="round" stroke-linejoin="round"/></g><defs><clipPath id="a"><path fill="#fff" d="M0 0h24v24H0z"/></clipPath></defs></svg>
